;FLAVOR:Marlin
;TIME:1560
;Filament used: 1.09194m
;Layer height: 0.1
;MINX:65.445
;MINY:110.484
;MINZ:0.15
;MAXX:163.261
;MAXY:185.465
;MAXZ:0.95
;Generated with Cura_SteamEngine 5.4.0
M140 S100
M105
M190 S100
M104 S250
M105
M109 S250
M82 ;absolute extrusion mode
M400
G28; HOME GERAL
M400
G29; AUTO NIVELAMENTO
G1 Z10 F12000
M400
G1 X150 Y150
M400
G1 Z0.0
M400
G1 Z10
M400
G27
M400
G92 E0; RESETA EXTRUSOR
G1 E20 F500;
G1 E-5;
G92 E0; RESETA EXTRUSOR
M117 Imprimindo...
M400
G92 E0
G92 E0
G1 F1500 E-6.5
;LAYER_COUNT:9
;LAYER:0
M107
G0 F3600 X67.836 Y111.66 Z0.15
;TYPE:SKIRT
G1 F1500 E0
G1 F1800 X68.557 Y111.266 E0.02562
G1 X69.325 Y110.989 E0.05108
G1 X69.974 Y110.855 E0.07174
G1 X70.862 Y110.807 E0.09947
G1 X71.664 Y110.889 E0.12461
G1 X75.107 Y111.532 E0.23382
G1 X77.699 Y111.937 E0.31562
G1 X80.315 Y112.267 E0.39784
G1 X83.07 Y112.539 E0.48416
G1 X84.662 Y112.657 E0.53394
G1 X86.465 Y112.776 E0.59028
G1 X87.969 Y112.862 E0.63726
G1 X90.722 Y112.995 E0.7232
G1 X92.401 Y113.065 E0.7756
G1 X95.716 Y113.183 E0.87903
G1 X99.287 Y113.282 E0.99042
G1 X102.906 Y113.358 E1.10329
G1 X106.712 Y113.413 E1.22198
G1 X110.615 Y113.446 E1.34369
G1 X114.533 Y113.454 E1.46585
G1 X118.337 Y113.441 E1.58447
G1 X121.644 Y113.41 E1.68759
G1 X126.278 Y113.337 E1.8321
G1 X130.952 Y113.221 E1.97789
G1 X134.266 Y113.107 E2.08129
G1 X137.672 Y112.963 E2.18758
G1 X140.518 Y112.809 E2.27646
G1 X142.489 Y112.683 E2.33804
G1 X145.164 Y112.464 E2.42173
G1 X147.857 Y112.167 E2.50621
G1 X150.481 Y111.803 E2.58881
G1 X153.107 Y111.359 E2.67186
G1 X155.841 Y110.822 E2.75874
G1 X157.059 Y110.569 E2.79753
G1 X157.847 Y110.484 E2.82224
G1 X158.652 Y110.519 E2.84736
G1 X159.366 Y110.658 E2.87005
G1 X160.202 Y110.947 E2.89763
G1 X161.025 Y111.431 E2.9274
G1 X161.661 Y111.953 E2.95305
G1 X162.108 Y112.444 E2.97376
G1 X162.564 Y113.113 E2.999
G1 X162.938 Y113.915 E3.0266
G1 X163.168 Y114.686 E3.05168
G1 X163.261 Y115.63 E3.08126
G1 X163.212 Y116.453 E3.10697
G1 X163.039 Y117.243 E3.13219
G1 X162.838 Y117.795 E3.1505
G1 X162.416 Y118.581 E3.17832
G1 X161.92 Y119.252 E3.20434
G1 X161.29 Y119.829 E3.23098
G1 X160.414 Y120.506 E3.2655
G1 X74.352 Y184.064 E6.60151
G1 X73.661 Y184.554 E6.62793
G1 X73.053 Y184.909 E6.64988
G1 X72.247 Y185.242 E6.67707
G1 X71.337 Y185.428 E6.70603
G1 X70.685 Y185.465 E6.7264
G1 X69.811 Y185.398 E6.75373
G1 X68.9 Y185.145 E6.78321
G1 X68.294 Y184.876 E6.80388
G1 X67.496 Y184.373 E6.8333
G1 X66.925 Y183.855 E6.85734
G1 X66.411 Y183.247 E6.88216
G1 X65.943 Y182.416 E6.9119
G1 X65.663 Y181.671 E6.93672
G1 X65.464 Y180.825 E6.96382
G1 X65.445 Y179.531 E7.00417
G1 X65.445 Y116.643 E8.9651
G1 X65.463 Y115.814 E8.99096
G1 X65.523 Y115.236 E9.00908
G1 X65.748 Y114.304 E9.03897
G1 X66.142 Y113.461 E9.06799
G1 X66.501 Y112.912 E9.08844
G1 X67.079 Y112.246 E9.11594
G1 X67.836 Y111.66 E9.14579
G0 F3600 X68.079 Y112.097
G1 F1800 X68.729 Y111.735 E9.16899
G1 X69.426 Y111.479 E9.19214
G1 X70.075 Y111.345 E9.21281
G1 X70.812 Y111.305 E9.23582
G1 X71.572 Y111.381 E9.25964
G1 X75.015 Y112.024 E9.36885
G1 X77.63 Y112.432 E9.45138
G1 X80.266 Y112.765 E9.53422
G1 X83.025 Y113.037 E9.62067
G1 X84.625 Y113.156 E9.6707
G1 X86.432 Y113.275 E9.72716
G1 X87.941 Y113.361 E9.77429
G1 X90.701 Y113.495 E9.86046
G1 X92.38 Y113.565 E9.91285
G1 X95.698 Y113.683 E10.01638
G1 X99.273 Y113.782 E10.1279
G1 X102.896 Y113.858 E10.24089
G1 X106.705 Y113.913 E10.35967
G1 X110.611 Y113.946 E10.48147
G1 X114.534 Y113.954 E10.6038
G1 X118.342 Y113.941 E10.72254
G1 X121.652 Y113.91 E10.82575
G1 X126.29 Y113.837 E10.97039
G1 X130.969 Y113.721 E11.11633
G1 X134.287 Y113.607 E11.21985
G1 X137.693 Y113.462 E11.32615
G1 X140.55 Y113.308 E11.41537
G1 X142.521 Y113.182 E11.47695
G1 X145.219 Y112.961 E11.56136
G1 X147.912 Y112.664 E11.64584
G1 X150.562 Y112.296 E11.72926
G1 X153.203 Y111.85 E11.81278
G1 X155.943 Y111.312 E11.89985
G1 X157.161 Y111.059 E11.93864
G1 X157.825 Y110.984 E11.95947
G1 X158.63 Y111.019 E11.9846
G1 X159.203 Y111.131 E12.0028
G1 X159.993 Y111.404 E12.02887
G1 X160.71 Y111.819 E12.0547
G1 X161.291 Y112.29 E12.07802
G1 X161.738 Y112.781 E12.09872
G1 X162.149 Y113.392 E12.12168
G1 X162.459 Y114.058 E12.14459
G1 X162.675 Y114.783 E12.16818
G1 X162.762 Y115.604 E12.19392
G1 X162.723 Y116.349 E12.21718
G1 X162.569 Y117.072 E12.24023
G1 X162.368 Y117.624 E12.25855
G1 X161.977 Y118.342 E12.28404
G1 X161.548 Y118.914 E12.30634
G1 X160.952 Y119.46 E12.33154
G1 X160.117 Y120.104 E12.36442
G1 X74.062 Y183.657 E15.70017
G1 X73.409 Y184.122 E15.72516
G1 X72.801 Y184.477 E15.74712
G1 X72.1 Y184.762 E15.77071
G1 X71.305 Y184.929 E15.79604
G1 X70.723 Y184.966 E15.81423
G1 X69.898 Y184.903 E15.84003
G1 X69.099 Y184.686 E15.86584
G1 X68.561 Y184.453 E15.88412
G1 X67.798 Y183.972 E15.91225
G1 X67.307 Y183.532 E15.93281
G1 X66.822 Y182.959 E15.95621
G1 X66.41 Y182.238 E15.98211
G1 X66.15 Y181.556 E16.00487
G1 X65.963 Y180.762 E16.0303
G1 X65.945 Y179.524 E16.06891
G1 X65.945 Y116.653 E18.02931
G1 X65.961 Y115.861 E18.05401
G1 X66.009 Y115.354 E18.06989
G1 X66.223 Y114.469 E18.09828
G1 X66.562 Y113.732 E18.12358
G1 X66.879 Y113.24 E18.14183
G1 X67.426 Y112.609 E18.16787
G1 X68.079 Y112.097 E18.19374
G0 F3600 X68.326 Y112.532
G1 F1800 X68.905 Y112.203 E18.21451
G1 X69.527 Y111.969 E18.23523
G1 X70.176 Y111.835 E18.25589
G1 X70.763 Y111.803 E18.27422
G1 X71.48 Y111.873 E18.29669
G1 X74.923 Y112.516 E18.4059
G1 X77.561 Y112.927 E18.48915
G1 X80.217 Y113.263 E18.57263
G1 X82.98 Y113.535 E18.6592
G1 X84.588 Y113.655 E18.70948
G1 X86.399 Y113.774 E18.76607
G1 X87.913 Y113.86 E18.81335
G1 X90.68 Y113.995 E18.89973
G1 X92.359 Y114.065 E18.95213
G1 X95.68 Y114.183 E19.05575
G1 X99.259 Y114.282 E19.16739
G1 X102.886 Y114.358 E19.28051
G1 X106.698 Y114.413 E19.39939
G1 X110.607 Y114.446 E19.52128
G1 X114.535 Y114.454 E19.64376
G1 X118.347 Y114.441 E19.76263
G1 X121.66 Y114.41 E19.86593
G1 X126.302 Y114.337 E20.0107
G1 X130.986 Y114.221 E20.15679
G1 X134.308 Y114.107 E20.26044
G1 X137.714 Y113.961 E20.36674
G1 X140.582 Y113.807 E20.4563
G1 X142.553 Y113.681 E20.51788
G1 X145.274 Y113.458 E20.60301
G1 X147.967 Y113.161 E20.68749
G1 X150.643 Y112.789 E20.77174
G1 X153.3 Y112.341 E20.85575
G1 X156.04 Y111.802 E20.94283
G1 X157.217 Y111.556 E20.98032
G1 X157.881 Y111.481 E21.00116
G1 X158.539 Y111.511 E21.0217
G1 X159.04 Y111.604 E21.03758
G1 X159.784 Y111.861 E21.06213
G1 X160.398 Y112.21 E21.08415
G1 X160.921 Y112.627 E21.10501
G1 X161.368 Y113.118 E21.12571
G1 X161.732 Y113.668 E21.14628
G1 X161.98 Y114.201 E21.16461
G1 X162.182 Y114.88 E21.1867
G1 X162.262 Y115.582 E21.20873
G1 X162.233 Y116.248 E21.22952
G1 X162.099 Y116.901 E21.2503
G1 X161.898 Y117.453 E21.26862
G1 X161.54 Y118.1 E21.29168
G1 X161.179 Y118.573 E21.31023
G1 X160.646 Y119.064 E21.33283
G1 X159.82 Y119.702 E21.36537
G1 X73.772 Y183.25 E24.70085
G1 X73.119 Y183.715 E24.72584
G1 X72.613 Y184.014 E24.74417
G1 X71.957 Y184.281 E24.76625
G1 X71.269 Y184.43 E24.7882
G1 X70.761 Y184.467 E24.80408
G1 X69.979 Y184.407 E24.82854
G1 X69.298 Y184.227 E24.8505
G1 X68.76 Y183.994 E24.86879
G1 X68.129 Y183.597 E24.89203
G1 X67.689 Y183.209 E24.91032
G1 X67.231 Y182.668 E24.93243
G1 X66.876 Y182.057 E24.95446
G1 X66.637 Y181.441 E24.97506
G1 X66.462 Y180.699 E24.99883
G1 X66.445 Y179.517 E25.03569
G1 X66.445 Y116.662 E26.9956
G1 X66.459 Y115.908 E27.01911
G1 X66.507 Y115.401 E27.03499
G1 X66.697 Y114.636 E27.05957
G1 X66.985 Y113.999 E27.08137
G1 X67.257 Y113.568 E27.09726
G1 X67.774 Y112.972 E27.12186
G1 X68.326 Y112.532 E27.14388
G0 F3600 X68.577 Y112.964
G1 F1800 X69.085 Y112.669 E27.16219
G1 X69.632 Y112.458 E27.18047
G1 X70.208 Y112.334 E27.19885
G1 X70.716 Y112.301 E27.21472
G1 X71.388 Y112.365 E27.23577
G1 X74.831 Y113.008 E27.34498
G1 X77.492 Y113.422 E27.42895
G1 X80.168 Y113.761 E27.51306
G1 X82.935 Y114.033 E27.59976
G1 X84.551 Y114.154 E27.65029
G1 X86.366 Y114.273 E27.707
G1 X87.885 Y114.359 E27.75444
G1 X90.659 Y114.495 E27.84104
G1 X92.338 Y114.565 E27.89344
G1 X95.662 Y114.683 E27.99715
G1 X99.245 Y114.782 E28.10892
G1 X102.876 Y114.858 E28.22216
G1 X106.691 Y114.913 E28.34113
G1 X110.603 Y114.946 E28.46312
G1 X114.536 Y114.954 E28.58576
G1 X118.352 Y114.941 E28.70475
G1 X121.668 Y114.91 E28.80815
G1 X126.314 Y114.837 E28.95303
G1 X131.003 Y114.721 E29.09929
G1 X134.33 Y114.607 E29.20309
G1 X137.736 Y114.46 E29.30939
G1 X140.614 Y114.306 E29.39926
G1 X142.585 Y114.18 E29.46084
G1 X145.329 Y113.955 E29.54669
G1 X148.022 Y113.658 E29.63117
G1 X150.724 Y113.282 E29.71624
G1 X153.397 Y112.832 E29.80076
G1 X156.137 Y112.292 E29.88784
G1 X157.277 Y112.052 E29.92416
G1 X157.862 Y111.981 E29.94254
G1 X158.448 Y112.003 E29.96082
G1 X158.949 Y112.096 E29.97671
G1 X159.576 Y112.318 E29.99745
G1 X160.09 Y112.604 E30.01579
G1 X160.554 Y112.967 E30.03416
G1 X160.953 Y113.397 E30.05246
G1 X161.281 Y113.884 E30.07076
G1 X161.501 Y114.344 E30.08666
G1 X161.691 Y114.982 E30.10742
G1 X161.762 Y115.565 E30.12573
G1 X161.742 Y116.152 E30.14405
G1 X161.629 Y116.73 E30.16241
G1 X161.428 Y117.282 E30.18073
G1 X161.143 Y117.796 E30.19906
G1 X160.809 Y118.233 E30.21621
G1 X160.307 Y118.696 E30.2375
G1 X159.523 Y119.3 E30.26836
G1 X73.481 Y182.843 E33.60359
G1 X72.86 Y183.287 E33.6274
G1 X72.424 Y183.551 E33.64329
G1 X71.808 Y183.802 E33.66403
G1 X71.233 Y183.931 E33.68241
G1 X70.725 Y183.968 E33.69829
G1 X70.062 Y183.912 E33.71903
G1 X69.492 Y183.766 E33.73738
G1 X69.023 Y183.569 E33.75324
G1 X68.456 Y183.218 E33.77404
G1 X68.071 Y182.886 E33.78989
G1 X67.64 Y182.377 E33.81069
G1 X67.341 Y181.872 E33.82898
G1 X67.124 Y181.326 E33.84731
G1 X66.961 Y180.636 E33.86941
G1 X66.945 Y179.51 E33.90453
G1 X66.945 Y116.67 E35.86396
G1 X66.957 Y115.955 E35.88626
G1 X67.005 Y115.448 E35.90214
G1 X67.17 Y114.803 E35.9229
G1 X67.408 Y114.266 E35.94122
G1 X67.68 Y113.835 E35.95711
G1 X68.12 Y113.335 E35.97788
G1 X68.577 Y112.964 E35.99623
G0 F3600 X68.832 Y113.394
G1 F1800 X69.27 Y113.134 E36.01211
G1 X69.743 Y112.946 E36.02798
G1 X70.24 Y112.833 E36.04388
G1 X70.748 Y112.8 E36.05975
G1 X71.336 Y112.862 E36.07819
G1 X71.988 Y112.991 E36.09891
G1 X74.74 Y113.5 E36.18618
G1 X77.423 Y113.917 E36.27084
G1 X80.119 Y114.259 E36.35558
G1 X82.89 Y114.531 E36.4424
G1 X84.514 Y114.653 E36.49318
G1 X86.333 Y114.772 E36.55002
G1 X87.857 Y114.858 E36.59762
G1 X90.638 Y114.995 E36.68444
G1 X92.317 Y115.065 E36.73684
G1 X95.644 Y115.183 E36.84064
G1 X99.231 Y115.282 E36.95253
G1 X102.866 Y115.358 E37.0659
G1 X106.684 Y115.413 E37.18496
G1 X110.599 Y115.446 E37.30704
G1 X114.537 Y115.454 E37.42984
G1 X118.357 Y115.441 E37.54895
G1 X121.676 Y115.41 E37.65244
G1 X126.326 Y115.337 E37.79746
G1 X131.02 Y115.221 E37.94387
G1 X134.352 Y115.107 E38.04782
G1 X137.758 Y114.959 E38.15413
G1 X140.646 Y114.805 E38.24431
G1 X142.617 Y114.679 E38.30589
G1 X145.384 Y114.452 E38.39246
G1 X148.077 Y114.155 E38.47694
G1 X150.805 Y113.775 E38.56282
G1 X153.494 Y113.323 E38.64785
G1 X156.234 Y112.783 E38.73493
G1 X157.343 Y112.548 E38.77028
G1 X157.848 Y112.481 E38.78616
G1 X158.357 Y112.495 E38.80204
G1 X158.858 Y112.588 E38.81793
G1 X159.338 Y112.758 E38.8338
G1 X159.786 Y113.001 E38.8497
G1 X160.191 Y113.311 E38.8656
G1 X160.541 Y113.68 E38.88146
G1 X160.83 Y114.1 E38.89735
G1 X161.05 Y114.56 E38.91325
G1 X161.195 Y115.048 E38.92913
G1 X161.262 Y115.553 E38.94501
G1 X161.25 Y116.062 E38.96089
G1 X161.158 Y116.563 E38.97677
G1 X160.988 Y117.044 E38.99268
G1 X160.746 Y117.492 E39.00856
G1 X160.436 Y117.897 E39.02446
G1 X160.002 Y118.3 E39.04293
G1 X159.226 Y118.898 E39.07347
G1 X73.189 Y182.437 E42.40851
G1 X72.601 Y182.859 E42.43108
G1 X72.165 Y183.123 E42.44697
G1 X71.693 Y183.315 E42.46286
G1 X71.197 Y183.432 E42.47875
G1 X70.689 Y183.469 E42.49463
G1 X70.181 Y183.426 E42.51053
G1 X69.686 Y183.305 E42.52642
G1 X69.217 Y183.108 E42.54228
G1 X68.783 Y182.839 E42.5582
G1 X68.398 Y182.507 E42.57405
G1 X68.068 Y182.118 E42.58996
G1 X67.804 Y181.682 E42.60585
G1 X67.611 Y181.211 E42.62172
G1 X67.46 Y180.573 E42.64216
G1 X67.445 Y179.503 E42.67553
G1 X67.445 Y116.677 E44.63453
G1 X67.455 Y116.002 E44.65558
G1 X67.503 Y115.495 E44.67146
G1 X67.629 Y115.001 E44.68736
G1 X67.831 Y114.533 E44.70325
G1 X68.103 Y114.102 E44.71915
G1 X68.439 Y113.72 E44.73501
G1 X68.832 Y113.394 E44.75093
G1 F1500 E38.25093
;MESH:fog teste v1.3mf
G0 F3600 X106.352 Y117.996
G0 X106.337 Y119.179
G0 X118.017 Y120.444
;TYPE:WALL-INNER
G1 F1500 E44.75093
G1 F1800 X114.302 Y120.455 E44.86677
G1 X110.284 Y120.445 E44.99206
G1 X106.317 Y120.41 E45.11576
G1 X102.445 Y120.353 E45.23651
G1 X98.706 Y120.273 E45.35312
G1 X95.136 Y120.171 E45.46448
G1 X91.758 Y120.048 E45.56988
G1 X90.139 Y119.978 E45.62041
G1 X87.072 Y119.825 E45.71616
G1 X85.615 Y119.74 E45.76167
G1 X82.887 Y119.556 E45.84693
G1 X81.598 Y119.457 E45.88724
G1 X79.269 Y119.25 E45.96015
G1 X77.049 Y119.012 E46.02977
G1 X75.122 Y118.758 E46.09037
G1 X73.436 Y118.488 E46.14362
G1 X72.446 Y118.297 E46.17505
G1 X72.446 Y176.768 E47.99826
G1 X150.721 Y118.962 E51.0324
G1 X149.458 Y119.113 E51.07207
G1 X146.963 Y119.361 E51.15025
G1 X144.394 Y119.57 E51.23062
G1 X141.536 Y119.763 E51.31994
G1 X138.464 Y119.933 E51.41587
G1 X135.049 Y120.086 E51.52246
G1 X131.561 Y120.208 E51.63129
G1 X128.046 Y120.302 E51.74093
G1 X126.155 Y120.342 E51.79991
G1 X121.986 Y120.408 E51.92992
G1 X118.017 Y120.444 E52.05368
G0 F3600 X118.015 Y119.944
G1 F1800 X114.303 Y119.955 E52.16943
G1 X110.288 Y119.945 E52.29462
G1 X106.324 Y119.91 E52.41823
G1 X102.456 Y119.853 E52.53885
G1 X98.72 Y119.773 E52.65537
G1 X95.154 Y119.672 E52.76661
G1 X91.78 Y119.548 E52.87189
G1 X90.164 Y119.479 E52.92232
G1 X87.101 Y119.325 E53.01795
G1 X85.649 Y119.241 E53.0633
G1 X82.925 Y119.058 E53.14843
G1 X81.642 Y118.959 E53.18856
G1 X79.323 Y118.753 E53.26115
G1 X77.115 Y118.516 E53.3304
G1 X75.201 Y118.264 E53.39059
G1 X73.528 Y117.996 E53.44342
G1 X72.723 Y117.844 E53.46897
G1 X71.946 Y117.675 E53.49376
G1 X71.946 Y177.759 E55.36727
G1 X152.585 Y118.206 E58.49307
G1 X151.454 Y118.37 E58.5287
G1 X149.374 Y118.619 E58.59402
G1 X146.922 Y118.862 E58.67085
G1 X144.36 Y119.071 E58.751
G1 X141.509 Y119.264 E58.84011
G1 X138.441 Y119.433 E58.93592
G1 X135.031 Y119.586 E59.04235
G1 X131.548 Y119.708 E59.15102
G1 X128.035 Y119.802 E59.2606
G1 X126.147 Y119.842 E59.31949
G1 X121.982 Y119.908 E59.44937
G1 X118.015 Y119.944 E59.57307
G0 F3600 X118.014 Y119.444
G1 F1800 X114.305 Y119.455 E59.68873
G1 X110.293 Y119.445 E59.81383
G1 X106.331 Y119.41 E59.93737
G1 X102.466 Y119.353 E60.0579
G1 X98.734 Y119.273 E60.1743
G1 X95.172 Y119.172 E60.28541
G1 X91.801 Y119.049 E60.39059
G1 X90.189 Y118.98 E60.4409
G1 X87.13 Y118.826 E60.53641
G1 X85.682 Y118.742 E60.58163
G1 X82.964 Y118.559 E60.66658
G1 X81.686 Y118.461 E60.70654
G1 X79.376 Y118.255 E60.77886
G1 X77.18 Y118.02 E60.84772
G1 X75.28 Y117.77 E60.90748
G1 X73.621 Y117.505 E60.95986
G1 X72.827 Y117.355 E60.98506
G1 X72.178 Y117.217 E61.00575
G1 X71.446 Y117.038 E61.02925
G1 X71.446 Y178.75 E62.95351
G1 X154.548 Y117.379 E66.17477
G1 X153.327 Y117.593 E66.21342
G1 X151.395 Y117.874 E66.2743
G1 X149.325 Y118.121 E66.3393
G1 X146.881 Y118.364 E66.41588
G1 X144.326 Y118.572 E66.49581
G1 X141.481 Y118.764 E66.58473
G1 X138.419 Y118.934 E66.68035
G1 X135.014 Y119.086 E66.78663
G1 X131.535 Y119.208 E66.89518
G1 X128.024 Y119.302 E67.00469
G1 X126.139 Y119.342 E67.06348
G1 X121.977 Y119.408 E67.19328
G1 X118.014 Y119.444 E67.31685
G0 F3600 X118.012 Y118.944
;TYPE:WALL-OUTER
G1 F1800 X114.306 Y118.955 E67.43241
G1 X110.297 Y118.945 E67.55742
G1 X106.339 Y118.91 E67.68084
G1 X102.477 Y118.853 E67.80127
G1 X98.748 Y118.773 E67.91758
G1 X95.19 Y118.672 E68.02856
G1 X91.823 Y118.549 E68.13362
G1 X90.214 Y118.48 E68.18384
G1 X87.159 Y118.327 E68.27922
G1 X85.716 Y118.243 E68.32429
G1 X83.002 Y118.061 E68.40911
G1 X81.73 Y117.963 E68.44889
G1 X79.429 Y117.758 E68.52092
G1 X77.245 Y117.524 E68.58941
G1 X75.359 Y117.276 E68.64872
G1 X73.713 Y117.013 E68.7007
G1 X72.931 Y116.866 E68.72551
G1 X72.295 Y116.731 E68.74578
G1 X71.678 Y116.582 E68.76557
G1 X70.945 Y116.377 E68.78931
G1 X70.946 Y179.741 E70.76508
G1 X156.721 Y116.396 E74.08995
G1 X155.687 Y116.642 E74.12309
